epam-assets/icon-sources/18/internal-logo/feedback.svg

<svg width="18" height="18" viewBox="0 0 18 18" fill="none" xmlns="http://www.w3.org/2000/svg">
<g id="18/internal-logo/feedback">
<path id="icon" fill-rule="evenodd" clip-rule="evenodd" d="M14.625 2.0625L14.5324 2.06569H14.3452H12.7085C12.6394 2.06138 12.5756 2.06166 12.516 2.06569L3.74995 2.0625C3.13214 2.0625 2.62495 2.5665 2.62495 3.1875L2.59983 5.73516L2.41261 5.547C2.19427 5.32744 1.88217 5.32744 1.66383 5.547C1.44539 5.76647 1.44539 6.08016 1.66383 6.29972L2.88061 7.52288C3.09895 7.74234 3.41105 7.74234 3.62939 7.52288L4.75261 6.29972C4.97095 6.08016 4.97095 5.7195 4.75261 5.49994C4.53427 5.28047 4.12861 5.32744 3.91017 5.547L3.72305 5.73516C3.72305 3.62289 3.74517 3.24652 3.7493 3.19472H12.586C12.6529 3.19875 12.7246 3.19903 12.8022 3.19472H12.8324L14.25 3.1875V5.8125C14.25 6.5625 15.375 6.5625 15.375 5.8125V2.8125C15.375 2.4375 15 2.0625 14.625 2.0625ZM3.74562 3.19472C3.74684 3.19454 3.7506 3.18631 3.74995 3.1875C3.74995 3.1875 3.74972 3.1894 3.7493 3.19472H3.74562ZM3.74555 3.19472C3.74557 3.19472 3.7456 3.19472 3.74562 3.19472H3.74555ZM7.49998 6.03912C7.49998 6.86759 8.17161 7.53912 8.99998 7.53912C9.82836 7.53912 10.5 6.86759 10.5 6.03912C10.5 5.21075 9.82836 4.53912 8.99998 4.53912C8.17161 4.53912 7.49998 5.21075 7.49998 6.03912ZM8.99998 10.9688C10.054 10.9688 11.2969 10.5469 11.625 10.2188V9.46878C11.625 8.81253 11.1562 8.34378 10.5 8.34378H7.49998C6.84373 8.34378 6.37498 8.81253 6.37498 9.46878V10.2188C6.70311 10.5469 7.94604 10.9688 8.99998 10.9688ZM12.7118 13.6807L9.37496 13.6875C7.7844 13.6875 4.87496 15.9375 4.87496 15.9375V14.4375V13.6875H3.37496C3.06624 13.6875 2.62496 13.2479 2.62496 12.9375V9.56251C2.62496 8.81251 3.74996 8.81251 3.74996 9.56251V12.5625H4.87496H5.24996L6.08687 12.5522V13.6807V13.8378C7.25237 12.9735 8.52896 12.5625 9.37496 12.5625H13.5C13.4997 12.5625 13.5635 12.5614 13.654 12.5598C13.8736 12.5561 14.2504 12.5498 14.2509 12.5489H14.2568C14.2573 12.5427 14.257 12.4772 14.2562 12.3345V12.3343C14.2543 11.9794 14.25 11.1473 14.25 9.56251L14.0908 9.82688C13.8724 10.0462 13.467 10.0932 13.2488 9.87395C13.0303 9.65448 13.0303 9.29401 13.2488 9.07454L14.3715 7.85204C14.5896 7.63267 14.9015 7.63267 15.12 7.85204L16.3362 9.07454C16.5545 9.29401 16.5545 9.60751 16.3362 9.82688C16.1178 10.0462 15.8059 10.0462 15.5878 9.82688L15.375 9.56251V12.5625C15.375 13.1831 14.8733 13.6824 14.2559 13.6824H12.7809C12.757 13.6824 12.7345 13.6815 12.7119 13.6807L12.7118 13.6807Z" fill="#6C6F80"/>
</g>
</svg>

<svg xmlns="http://www.w3.org/2000/svg" width="18" height="18" fill="none" viewBox="0 0 18 18">
  <path fill="#6C6F80" fill-rule="evenodd" d="m14.625 2.063-.093.003H12.71a1.48 1.48 0 0 0-.193 0L3.75 2.063c-.618 0-1.125.503-1.125 1.124L2.6 5.736l-.187-.188a.508.508 0 0 0-.75 0 .514.514 0 0 0 0 .753l1.218 1.223c.218.22.53.22.748 0L4.753 6.3a.57.57 0 0 0 0-.8c-.219-.22-.624-.173-.843.047l-.187.188c0-2.112.022-2.488.026-2.54h8.837c.067.004.139.004.216 0h.03l1.418-.007v2.624c0 .75 1.125.75 1.125 0v-3c0-.374-.375-.75-.75-.75ZM3.745 3.194c.002 0 .006-.009.005-.007v.007h-.004Zm0 0ZM7.5 6.039a1.5 1.5 0 1 0 3 0 1.5 1.5 0 0 0-3 0ZM9 10.97c1.054 0 2.297-.422 2.625-.75v-.75c0-.656-.469-1.125-1.125-1.125h-3c-.656 0-1.125.469-1.125 1.125v.75c.328.328 1.571.75 2.625.75Zm3.712 2.712-3.337.007c-1.59 0-4.5 2.25-4.5 2.25v-2.25h-1.5c-.309 0-.75-.44-.75-.75V9.563c0-.75 1.125-.75 1.125 0v3h1.5l.837-.01v1.285c1.165-.864 2.442-1.275 3.288-1.275H13.5l.154-.003.597-.011h.006v-.214c-.003-.356-.007-1.188-.007-2.772l-.16.264c-.218.22-.623.266-.841.047a.57.57 0 0 1 0-.8l1.122-1.222c.219-.22.53-.22.749 0l1.216 1.223a.514.514 0 0 1 0 .752.508.508 0 0 1-.748 0l-.213-.264v3c0 .62-.502 1.12-1.12 1.12h-1.474l-.07-.002Z" clip-rule="evenodd"/>
</svg>
